src/lib/packages/icons/src/assets/filled/book-bookmark.svg

<svg xmlns="http://www.w3.org/2000/svg" width="24" height="24" fill="none"><path fill="currentColor" d="M18.5 2.25H16V10l-2-1.143L12 10V2.25H7C4.582 2.25 3.25 3.582 3.25 6v12c0 2.243 1.507 3.75 3.75 3.75h11.5c1.24 0 2.25-1.009 2.25-2.25v-15c0-1.241-1.01-2.25-2.25-2.25Zm.75 17.25a.75.75 0 0 1-.75.75H7c-2.03 0-2.25-1.574-2.25-2.25 0-.676.22-2.25 2.25-2.25h11.5c.145 0 .285-.017.422-.043.044-.008.086-.023.129-.034.066-.017.135-.029.199-.052V19.5Z"/></svg>

<svg width="24" height="24" viewBox="0 0 24 24" fill="none" xmlns="http://www.w3.org/2000/svg">
<path d="M18.5 2.25H16V10L14 8.85706L12 10V2.25H7C4.582 2.25 3.25 3.582 3.25 6V18C3.25 20.243 4.757 21.75 7 21.75H18.5C19.74 21.75 20.75 20.741 20.75 19.5V13.5V4.5C20.75 3.259 19.74 2.25 18.5 2.25ZM19.25 19.5C19.25 19.914 18.913 20.25 18.5 20.25H7C4.97 20.25 4.75 18.676 4.75 18C4.75 17.324 4.97 15.75 7 15.75H18.5C18.645 15.75 18.7851 15.733 18.9221 15.707C18.9661 15.699 19.008 15.684 19.051 15.673C19.117 15.656 19.186 15.644 19.25 15.621V19.5Z" fill="currentColor"/>
</svg>
